assets/images/ico_done.svg

<svg width="78" height="66" viewBox="0 0 78 66" fill="none" xmlns="http://www.w3.org/2000/svg">
<path d="M36.3762 31.5637C36 31.5659 35.6345 31.4379 35.3412 31.2011L1.09062 2.93901C0.752288 2.66009 0.538126 2.2576 0.495244 1.82007C0.474011 1.60343 0.495468 1.38471 0.558389 1.1764C0.62131 0.968091 0.724464 0.774268 0.861959 0.606C0.999455 0.437731 1.1686 0.298313 1.35974 0.195705C1.55088 0.0930964 1.76027 0.0293071 1.97595 0.0079798C2.41154 -0.0350926 2.84632 0.0974052 3.18465 0.376325L36.3762 27.7681L69.5437 0.400501C69.882 0.121581 70.3168 -0.0109157 70.7524 0.0321566C71.188 0.075229 71.5887 0.290343 71.8664 0.630176C72.1441 0.970009 72.276 1.40672 72.2331 1.84425C72.1902 2.28177 71.9761 2.68427 71.6377 2.96319L37.4112 31.2011C37.118 31.4379 36.7525 31.5659 36.3762 31.5637Z" fill="#52A400"/>
<path d="M49.5418 35.166C49.1659 35.1662 48.801 35.0384 48.5068 34.8033L46.0999 32.7483C45.7616 32.4694 45.5474 32.0669 45.5045 31.6294C45.4616 31.1919 45.5936 30.7552 45.8712 30.4153C46.1489 30.0755 46.5496 29.8604 46.9852 29.8173C47.4208 29.7742 47.8556 29.9067 48.1939 30.1857L50.6009 32.2406C50.8673 32.4556 51.0601 32.749 51.1521 33.0796C51.2442 33.4103 51.2309 33.7615 51.1141 34.0842C50.9972 34.4068 50.7828 34.6846 50.5008 34.8786C50.2189 35.0726 49.8835 35.1731 49.5418 35.166Z" fill="#52A400"/>
<path d="M2.12531 52.452C1.78567 52.454 1.45382 52.3498 1.17576 52.1539C0.897709 51.958 0.687226 51.68 0.573493 51.3585C0.459759 51.0371 0.448409 50.688 0.541016 50.3598C0.633623 50.0316 0.825599 49.7404 1.09033 49.5267L24.6301 30.1857C24.9684 29.9067 25.4032 29.7742 25.8388 29.8173C26.2744 29.8604 26.6751 30.0755 26.9528 30.4153C27.2305 30.7552 27.3624 31.1919 27.3195 31.6294C27.2766 32.0669 27.0625 32.4694 26.7241 32.7483L3.18436 52.0894C2.88472 52.3315 2.50978 52.4598 2.12531 52.452Z" fill="#52A400"/>
<path d="M41.6229 52.452H2.12517C1.90819 52.452 1.69338 52.4087 1.49322 52.3246C1.29306 52.2405 1.11155 52.1172 0.959247 51.962C0.806945 51.8068 0.686892 51.6227 0.606069 51.4204C0.525246 51.2182 0.485267 51.0018 0.488458 50.7839V1.68183C0.488458 1.24582 0.660897 0.827662 0.96784 0.519354C1.27478 0.211047 1.69109 0.0378418 2.12517 0.0378418H70.6023C71.0364 0.0378418 71.4527 0.211047 71.7597 0.519354C72.0666 0.827662 72.2391 1.24582 72.2391 1.68183V30.6934C72.2391 31.1326 72.0654 31.5538 71.7562 31.8644C71.447 32.175 71.0276 32.3494 70.5903 32.3494C70.153 32.3494 69.7337 32.175 69.4245 31.8644C69.1153 31.5538 68.9416 31.1326 68.9416 30.6934V3.32582H3.78595V49.1399H41.6229C42.0602 49.1399 42.4795 49.3144 42.7887 49.6249C43.0979 49.9355 43.2717 50.3567 43.2717 50.7959C43.2717 51.2352 43.0979 51.6564 42.7887 51.967C42.4795 52.2775 42.0602 52.452 41.6229 52.452Z" fill="#52A400"/>
<path d="M62.7079 65.4831C59.7812 65.483 56.9202 64.6116 54.4865 62.9789C52.0527 61.3462 50.1554 59.0255 49.0344 56.3101C47.9133 53.5947 47.6187 50.6064 48.188 47.7228C48.7572 44.8393 50.1646 42.19 52.2324 40.1096C54.3001 38.0293 56.9355 36.6113 59.8053 36.0349C62.6751 35.4584 65.6507 35.7494 68.3559 36.8711C71.0612 37.9927 73.3747 39.8947 75.0041 42.3366C76.6335 44.7785 77.5057 47.6508 77.5105 50.5905C77.5105 54.536 75.9517 58.3204 73.1764 61.1126C70.401 63.9048 66.636 65.4766 62.7079 65.4831ZM62.7079 39.0342C60.4276 39.0342 58.1986 39.7134 56.3026 40.9859C54.4066 42.2583 52.9289 44.0669 52.0563 46.183C51.1837 48.299 50.9554 50.6275 51.4002 52.8739C51.8451 55.1202 52.9431 57.1837 54.5555 58.8032C56.1679 60.4228 58.2222 61.5257 60.4586 61.9726C62.6951 62.4194 65.0132 62.1901 67.1199 61.3136C69.2266 60.4371 71.0272 58.9528 72.2941 57.0484C73.5609 55.144 74.2371 52.905 74.2371 50.6146C74.2371 47.5433 73.0224 44.5978 70.8603 42.426C68.6981 40.2543 65.7656 39.0342 62.7079 39.0342Z" fill="#52A400"/>
<path d="M62.3295 56.5395C61.9487 56.5364 61.5843 56.3905 61.3139 56.133L56.5534 51.5593C56.2729 51.2898 56.1152 50.9242 56.1152 50.543C56.1152 50.1618 56.2729 49.7962 56.5534 49.5266C56.834 49.257 57.2145 49.1056 57.6113 49.1056C58.0081 49.1056 58.3886 49.257 58.6692 49.5266L62.2237 52.9416L68.0421 45.1359C68.1532 44.9877 68.2937 44.8621 68.4553 44.7661C68.617 44.67 68.7968 44.6056 68.9845 44.5763C69.1721 44.5471 69.3639 44.5536 69.5489 44.5955C69.7339 44.6375 69.9084 44.714 70.0627 44.8208C70.2169 44.9276 70.3477 45.0625 70.4476 45.2179C70.5475 45.3732 70.6146 45.5459 70.6451 45.7262C70.6755 45.9065 70.6687 46.0907 70.6251 46.2685C70.5814 46.4462 70.5017 46.6139 70.3906 46.7621L63.5778 55.889C63.4552 56.0522 63.297 56.1876 63.1143 56.2859C62.9316 56.3842 62.7287 56.443 62.5199 56.4582L62.3295 56.5395Z" fill="#52A400"/>
</svg>

<svg width="78" height="66" fill="none" xmlns="http://www.w3.org/2000/svg"><path d="M36.376 31.564a1.632 1.632 0 0 1-1.035-.363L1.091 2.94A1.66 1.66 0 0 1 1.976.008c.436-.043.87.09 1.209.368l33.191 27.392L69.544.401a1.645 1.645 0 0 1 2.322.23 1.663 1.663 0 0 1-.228 2.332L37.41 31.201a1.632 1.632 0 0 1-1.035.363zm13.166 3.602c-.376 0-.741-.128-1.035-.363L46.1 32.748a1.66 1.66 0 0 1 .885-2.93c.436-.044.87.089 1.209.368L50.6 32.24a1.645 1.645 0 0 1 .513 1.843 1.644 1.644 0 0 1-1.572 1.082zM2.125 52.452a1.632 1.632 0 0 1-1.552-1.093 1.65 1.65 0 0 1 .517-1.832l23.54-19.341a1.645 1.645 0 0 1 2.323.23 1.663 1.663 0 0 1-.229 2.332L3.184 52.09c-.3.242-.674.37-1.059.363z" fill="#52A400"/><path d="M41.623 52.452H2.125A1.631 1.631 0 0 1 .606 51.42a1.65 1.65 0 0 1-.118-.636V1.682c0-.436.173-.854.48-1.163A1.633 1.633 0 0 1 2.125.038h68.477a1.637 1.637 0 0 1 1.638 1.644v29.011c0 .44-.175.86-.484 1.171a1.645 1.645 0 0 1-2.332 0 1.66 1.66 0 0 1-.482-1.17V3.325H3.786V49.14h37.837c.437 0 .857.174 1.166.485a1.66 1.66 0 0 1 0 2.342 1.65 1.65 0 0 1-1.166.485z" fill="#52A400"/><path d="M62.708 65.483a14.75 14.75 0 0 1-8.221-2.504 14.854 14.854 0 0 1-5.453-6.669 14.929 14.929 0 0 1-.846-8.587 14.89 14.89 0 0 1 4.044-7.613 14.782 14.782 0 0 1 7.573-4.075 14.74 14.74 0 0 1 8.55.836 14.816 14.816 0 0 1 6.65 5.466 14.916 14.916 0 0 1 2.505 8.253c0 3.946-1.558 7.73-4.334 10.523a14.794 14.794 0 0 1-10.468 4.37zm0-26.449c-2.28 0-4.51.68-6.405 1.952a11.568 11.568 0 0 0-4.247 5.197 11.629 11.629 0 0 0-.656 6.69 11.597 11.597 0 0 0 3.156 5.93 11.514 11.514 0 0 0 5.903 3.17 11.48 11.48 0 0 0 6.66-.66 11.54 11.54 0 0 0 5.175-4.265 11.618 11.618 0 0 0-1.434-14.622 11.504 11.504 0 0 0-8.152-3.392z" fill="#52A400"/><path d="M62.33 56.54a1.49 1.49 0 0 1-1.016-.407l-4.76-4.574a1.41 1.41 0 0 1-.439-1.016c0-.381.158-.747.438-1.016.281-.27.662-.421 1.058-.421.397 0 .778.151 1.058.42l3.555 3.416 5.818-7.806c.111-.148.252-.274.413-.37a1.484 1.484 0 0 1 1.094-.17c.185.042.36.118.514.225.154.107.285.242.385.397a1.358 1.358 0 0 1 .177 1.05 1.367 1.367 0 0 1-.234.494l-6.813 9.127a1.42 1.42 0 0 1-.464.397 1.482 1.482 0 0 1-.594.172l-.19.081z" fill="#52A400"/></svg>
